X:7
T:Mazurka
C:G. Chabenat
I:Airs nouveaux pour danses anciennes
Q:1/4=144
M:3/4
K:F
E3/2D/ A2 A3/2B/ |c3/2d/ A2 A2 |B3/2A/ G2 A3/2G/ |F3/2E/ F2 D3/2D/ |
E3/2D/ A2 A3/2B/ |c3/2d/ A2 A2 |B3/2A/ G2 A3/2G/ |F3/2E/ D4 :|
d3/2c/ B2 B3/2A/ |B3/2c/ d2 d2 |c3/2B/ A2 A3/2G/ |A3/2B/ A2 A3/2F/ |
d3/2c/ B2 B3/2A/ |B3/2c/ d2 d2 |c3/2B/ A2 G3/2F/ |1E3/2F/ E2 E3/2D/ :|2
E3/2F/ D2 D3/2D/ |]
